libs/islamic-website/markets-page/src/assets/images/coin-logos/inj.svg

<svg fill="none" height="34" viewBox="0 0 34 34" width="34" xmlns="http://www.w3.org/2000/svg" xmlns:xlink="http://www.w3.org/1999/xlink"><linearGradient id="a"><stop offset="0" stop-color="#0082fa"/><stop offset="1" stop-color="#00f2fe"/></linearGradient><linearGradient id="b" gradientUnits="userSpaceOnUse" x1="7" x2="27" xlink:href="#a" y1="17" y2="17"/><linearGradient id="c" gradientUnits="userSpaceOnUse" x1="6.99928" x2="26.9993" xlink:href="#a" y1="17" y2="17"/><rect fill="#edf3fa" height="32" rx="16" width="32" x="1" y="1"/><rect height="32" rx="16" stroke="#181e25" stroke-width="2" width="32" x="1" y="1"/><path d="m9.42485 10.4567c.1242-.1561.2558-.3063.3874-.4565.0059-.00742.01925-.00892.02515-.01637.01185-.01485.0311-.0238.0429-.0387l.01185-.01485c.09175-.0848.18935-.1771.30195-.2575.3982-.3023.8114-.53195 1.2472-.68305 1.3976-.4907 2.9534-.1883 4.1735.9635 1.7035 1.59687 1.551 4.16927.1911 5.87907-1.7185 2.5489-4.6717 6.1051-.5827 9.2907.7352.5728 1.2806 1.045 3.5964 1.7143-1.5146.279-2.919.1922-4.4822-.2071-1.1057-.6241-2.8441-1.9604-3.4355-3.7652-.8939-2.7369 1.5738-6.8284 2.7664-8.4042 1.6374-2.1809-1.0121-4.54172-2.9627-1.9061-1.0196 1.3736-2.8034 5.2604-2.1835 8.1435.36245 1.635.84555 2.8267 2.7611 4.4638-.3552-.2096-.7002-.4473-1.0348-.7133-4.45055-4.1457-3.93421-10.5558-.82355-13.992z" fill="url(#b)"/><path d="m24.5744 23.5433c-.1242.1561-.2558.3063-.3874.4565-.0059.0074-.0192.0089-.0251.0164-.0119.0148-.0311.0238-.0429.0387l-.0119.0148c-.0917.0848-.1893.1771-.3019.2575-.3982.3023-.8114.532-1.2472.6831-1.3976.4907-2.9534.1883-4.1735-.9635-1.7035-1.5969-1.551-4.1693-.1911-5.8791 1.7185-2.5489 4.6717-6.1051.5827-9.2907-.7352-.5728-1.2806-1.04505-3.5964-1.7143 1.5146-.27902 2.919-.19222 4.4821.20705 1.1058.6241 2.8442 1.9604 3.4356 3.76525.8939 2.7369-1.5738 6.8284-2.7664 8.4042-1.6374 2.1809 1.0121 4.5417 2.9627 1.9061 1.0196-1.3736 2.8034-5.2604 2.1835-8.1435-.3625-1.635-.8456-2.8267-2.7611-4.46385.3552.2096.7002.44735 1.0348.71335 4.4505 4.1457 3.9342 10.5558.8235 13.992z" fill="url(#c)"/></svg>

<svg width="34" height="34" viewBox="0 0 34 34" fill="none" xmlns="http://www.w3.org/2000/svg">
<rect x="1" y="1" width="32" height="32" rx="16" fill="#EDF3FA"/>
<rect x="1" y="1" width="32" height="32" rx="16" stroke="#181E25" stroke-width="2"/>
<path d="M9.42485 10.4567C9.54905 10.3006 9.68065 10.1504 9.81225 10.0002C9.81815 9.99278 9.8315 9.99128 9.8374 9.98383C9.84925 9.96898 9.8685 9.96003 9.8803 9.94513L9.89215 9.93028C9.9839 9.84548 10.0815 9.75318 10.1941 9.67278C10.5923 9.37048 11.0055 9.14083 11.4413 8.98973C12.8389 8.49903 14.3947 8.80143 15.6148 9.95323C17.3183 11.5501 17.1658 14.1225 15.8059 15.8323C14.0874 18.3812 11.1342 21.9374 15.2232 25.123C15.9584 25.6958 16.5038 26.168 18.8196 26.8373C17.305 27.1163 15.9006 27.0295 14.3374 26.6302C13.2317 26.0061 11.4933 24.6698 10.9019 22.865C10.008 20.1281 12.4757 16.0366 13.6683 14.4608C15.3057 12.2799 12.6562 9.91908 10.7056 12.5547C9.686 13.9283 7.9022 17.8151 8.5221 20.6982C8.88455 22.3332 9.36765 23.5249 11.2832 25.162C10.928 24.9524 10.583 24.7147 10.2484 24.4487C5.79785 20.303 6.31419 13.8929 9.42485 10.4567Z" fill="url(#paint0_linear_2818_63496)"/>
<path d="M24.5744 23.5433C24.4502 23.6994 24.3186 23.8496 24.187 23.9998C24.1811 24.0072 24.1678 24.0087 24.1619 24.0162C24.15 24.031 24.1308 24.04 24.119 24.0549L24.1071 24.0697C24.0154 24.1545 23.9178 24.2468 23.8052 24.3272C23.407 24.6295 22.9938 24.8592 22.558 25.0103C21.1604 25.501 19.6046 25.1986 18.3845 24.0468C16.681 22.4499 16.8335 19.8775 18.1934 18.1677C19.9119 15.6188 22.8651 12.0626 18.7761 8.877C18.0409 8.3042 17.4955 7.83195 15.1797 7.1627C16.6943 6.88368 18.0987 6.97048 19.6618 7.36975C20.7676 7.99385 22.506 9.33015 23.0974 11.135C23.9913 13.8719 21.5236 17.9634 20.331 19.5392C18.6936 21.7201 21.3431 24.0809 23.2937 21.4453C24.3133 20.0717 26.0971 16.1849 25.4772 13.3018C25.1147 11.6668 24.6316 10.4751 22.7161 8.83795C23.0713 9.04755 23.4163 9.2853 23.7509 9.5513C28.2014 13.697 27.6851 20.1071 24.5744 23.5433Z" fill="url(#paint1_linear_2818_63496)"/>
<defs>
<linearGradient id="paint0_linear_2818_63496" x1="7" y1="17" x2="27" y2="17" gradientUnits="userSpaceOnUse">
<stop stop-color="#0082FA"/>
<stop offset="1" stop-color="#00F2FE"/>
</linearGradient>
<linearGradient id="paint1_linear_2818_63496" x1="6.99928" y1="17" x2="26.9993" y2="17" gradientUnits="userSpaceOnUse">
<stop stop-color="#0082FA"/>
<stop offset="1" stop-color="#00F2FE"/>
</linearGradient>
</defs>
</svg>
